X:1
T:Deffro, Fy Nansi
T:Awake, My Dear Nancy
C:John Thomas
M:C
L:1/8
R:Air
B:John Thomas – Y Caniedydd Cymreig/The Cambrian Minstrel (1845, p. 65)
Z:AK/Fiddler’s Companion
K:C
G|c2 Ac BG z2|Bc de f3d|e2 gf ec zd|e2 d c/A/ !fermata!G3G|
C2 Ac BG zc|Bc de f3d|e2 gf e c2d|e2f ed2||e|f2 e=f g d2e|
f2ed A3B|c2 de f2 ed|c2 Ac B2A|G2 AB Gc2d|e2 f d c3z||

